picto/ski-lift-right.svg

<svg class="color-immutable" width="24" height="24" viewBox="0 0 24 24" fill="none" xmlns="http://www.w3.org/2000/svg"><g clip-path="url(#a)"><path d="M0 22.5v-21C0 .675.675 0 1.5 0h21c.825 0 1.5.675 1.5 1.5v21c0 .825-.675 1.5-1.5 1.5h-21C.675 24 0 23.325 0 22.5Z" fill="#2D327D"/><path d="M10.765 9.591 17.355 3h1.008l-7.094 7.094-.504-.503ZM7.874 7.231l3.278 3.278a.543.543 0 1 1-.768.768l-2.51-2.508V7.231ZM8.738 12.624l-.503-.503 1.231-1.23.503.503-1.231 1.23Z" fill="#fff"/><path d="m3.109 8.59 2.117-2.118a1.332 1.332 0 0 1 2.273.941v4.502l1.653 1.653c.071.071.11.166.11.266v4.222a.693.693 0 1 1-1.388 0v-3.432l-2.922-2.81a.373.373 0 0 1-.115-.27V8.347l-.75.75v2.772a.543.543 0 0 1-1.086 0V8.856a.37.37 0 0 1 .108-.266Z" fill="#fff"/><path d="M16.272 17.298a.987.987 0 0 0 .414-.611h.863a1.558 1.558 0 0 1-.475.936c-.398.357-.879.61-1.4.736L3 21v-.69l12.17-2.536c.395-.083.77-.245 1.102-.476ZM5.957 14.43a.544.544 0 1 1 1.088 0 .544.544 0 0 1-1.088 0ZM6.157 5.838a1.163 1.163 0 1 1 .002-2.326 1.163 1.163 0 0 1-.002 2.326Z" fill="#fff"/></g><defs><clipPath id="a"><path fill="#fff" d="M0 0h24v24H0z"/></clipPath></defs></svg>

<svg class="color-immutable" width="24" height="24" viewBox="0 0 24 24" fill="none" xmlns="http://www.w3.org/2000/svg"><path d="M0 22.5V1.5C0 0.675 0.675 0 1.5 0H22.5C23.325 0 24 0.675 24 1.5V22.5C24 23.325 23.325 24 22.5 24H1.5C0.675 24 0 23.325 0 22.5Z" fill="#2D327D"/><path d="M10.765 9.591L17.355 3H18.363L11.269 10.094L10.765 9.591Z" fill="white"/><path d="M7.87402 7.231L11.152 10.509C11.255 10.61 11.312 10.75 11.312 10.893C11.312 11.193 11.069 11.436 10.768 11.436C10.625 11.436 10.487 11.379 10.384 11.277L7.87402 8.769V7.231Z" fill="white"/><path d="M8.73799 12.624L8.23499 12.121L9.46599 10.891L9.96899 11.394L8.73799 12.624Z" fill="white"/><path d="M3.109 8.59L5.226 6.472C5.477 6.222 5.815 6.082 6.168 6.082C6.903 6.082 7.499 6.679 7.499 7.413V11.915L9.152 13.568C9.223 13.639 9.262 13.734 9.262 13.834V18.056C9.262 18.44 8.952 18.75 8.569 18.75C8.185 18.75 7.874 18.44 7.874 18.056V14.624L4.952 11.814C4.878 11.743 4.837 11.646 4.837 11.544V8.347L4.087 9.097V11.869C4.087 12.169 3.844 12.412 3.543 12.412C3.243 12.412 3.001 12.169 3.001 11.869V8.856C3 8.755 3.039 8.661 3.109 8.59Z" fill="white"/><path d="M16.272 17.298C16.484 17.156 16.632 16.936 16.686 16.687H17.549C17.504 17.044 17.336 17.375 17.074 17.623C16.676 17.98 16.195 18.233 15.674 18.359L3 21V20.31L15.17 17.774C15.565 17.691 15.94 17.529 16.272 17.298Z" fill="white"/><path d="M5.95697 14.43C5.95697 14.13 6.19997 13.886 6.50097 13.886C6.79997 13.886 7.04397 14.13 7.04397 14.43C7.04397 14.73 6.80097 14.974 6.50097 14.974C6.19997 14.974 5.95697 14.73 5.95697 14.43Z" fill="white"/><path d="M6.157 5.838C5.516 5.838 4.995 5.317 4.995 4.676C4.995 4.033 5.515 3.513 6.157 3.513C6.799 3.513 7.32 4.033 7.32 4.676C7.321 5.317 6.799 5.838 6.157 5.838Z" fill="white"/></svg>
